icons/rect/rect-original.svg

<?xml version="1.0" encoding="UTF-8"?>
<svg xmlns="http://www.w3.org/2000/svg" xmlns:xlink="http://www.w3.org/1999/xlink" width="128px" height="128px" viewBox="0 0 128 128" version="1.1">
<g id="surface1">
<rect x="0" y="0" width="128" height="128" fill="#292929"/>
<path stroke="#fff" stroke-width="16" d="M 18.995667 18.995667 L 403.004333 18.995667 L 403.004333 403.004333 L 18.995667 403.004333 Z M 18.995667 18.995667 " transform="matrix(0.303318,0,0,0.303318,0,0)"/>
<path fill="#fff" d="M 75.070312 95.089844 L 56.113281 95.089844 L 56.113281 114.046875 L 75.070312 114.046875 L 75.070312 110.257812 L 59.90625 110.257812 L 59.90625 106.464844 L 67.335938 106.464844 L 67.335938 102.671875 L 59.90625 102.671875 L 59.90625 98.882812 L 75.070312 98.882812 Z M 97.667969 95.089844 L 78.863281 95.089844 L 78.863281 114.046875 L 97.667969 114.046875 L 97.667969 110.257812 L 82.503906 110.257812 L 82.503906 98.882812 L 97.667969 98.882812 Z M 119.808594 95.089844 L 101.613281 95.089844 L 101.613281 98.882812 L 109.195312 98.882812 L 109.195312 114.046875 L 112.984375 114.046875 L 112.984375 98.882812 L 119.808594 98.882812 Z M 33.214844 95.089844 L 33.214844 114.046875 L 37.003906 114.046875 L 37.003906 98.882812 L 48.378906 98.882812 L 48.378906 106.464844 L 52.171875 106.464844 L 52.171875 95.089844 Z M 33.214844 95.089844 "/>
<path fill="#fff" d="M 48.378906 102.671875 L 37.003906 102.671875 L 37.003906 106.464844 L 44.585938 106.464844 L 44.585938 110.257812 L 48.378906 110.257812 Z M 52.171875 110.257812 L 48.378906 110.257812 L 48.378906 114.046875 L 52.171875 114.046875 Z M 52.171875 110.257812 "/>
</g>
</svg>

<svg xmlns="http://www.w3.org/2000/svg" viewBox="0 0 128 128"><path fill="#292929" d="M0 0h128v128H0z"/><path stroke="#fff" stroke-width="4.85312" d="M5.762 5.762h116.476v116.476H5.762zm0 0"/><path fill="#fff" d="M75.07 95.09H56.113v18.957H75.07v-3.79H59.906v-3.792h7.43v-3.793h-7.43v-3.79H75.07zm22.598 0H78.863v18.957h18.805v-3.79H82.504V98.884h15.164zm22.14 0h-18.195v3.793h7.582v15.164h3.79V98.883h6.824zm-86.593 0v18.957h3.789V98.883h11.375v7.582h3.793V95.09zm0 0"/><path fill="#fff" d="M48.379 102.672H37.004v3.793h7.582v3.793h3.793zm3.793 7.586h-3.793v3.789h3.793zm0 0"/></svg>
